X:1
T:See! From the Morning Land
T:Horatio Richmond Palmer
T:See! From the Morning Land
T:Public Domain
T:Public Domain
C:Horatio Richmond Palmer
Z:Public Domain
%%score ( 1 2 ) ( 3 4 )
L:1/8
M:4/4
K:Eb
V:1 treble 
V:2 treble 
V:3 bass 
V:4 bass 
V:1
 E4 G2 A2 | B3 [EB] [DB]4 | B4 c2 d2 | e3 [Ae] [Ae]4 | [Fe]4 [Fd]2 [Fc]2 | [FB]6 z2 | %6
w: 1.~See! from the|O- ver its|en strand, Love|Where, from a|bled sleep, Sad|hearts|
w: 2.~Oh, how her|Bids them in|re- joice, Calms|Sweet- ly we|her say, Rolled|is|
w: 3.~Hail, Thou A-|God’s own e-|nal Son, Glo-|Thou our ex-|ed Lord, Thou|the|
 (D3 E) [FB]2 [AB]2 | [GB]3 [FB] [EB]4 | ([DF]3 [^C=E]) ([DF][_EG])([FA][GB]) | %9
w: a- * wake to|Where their lone|watch * they * keep, *|
w: the * stone a-|Je- sus a-|rose * to- * day, *|
w: In- * car- nate|By all in|Heav’n * a- * dored, *|
 [Ac]3 [GB] (F2 A2) | (G2 c2) [Bd]2 [Ac]2 | [GB]3 [EG] (E2 F2) | [EG]2 [DB]4 [B,D]2 | [B,E]6 || %14
w: Tid- ings she *|||||
w: Dry ev- ery *|Hal- * le- lu-|Christ is ris’n *|glo- ry! Hal-|le-|
w: Thy Name shall *|||||
[M:3/4]"^Refrain" [GB]>[Ee] | [Fd][Fd] [Fd][Fd] [Bd][Ad] | (eB) [GB]2 [EG]>[GB] | %17
w: |||
w: lu- jah!|Hal- le- lu- jah! A- men!|Christ * the Lord our|
w: |||
 [FA][FA] [Dc][Dc] [EB][FA] | (GB) [EB] z [GB]>[Ee] | [Fd][Fd] [Fd][Fd] [Bd][Ad] | %20
w: |||
w: is ris’n in glo- ry! Hal-|le- * lu- jah! A-||
w: |||
 (eB) [GB]2 [GB]>[GB] | .[Ac].[Ac] z2 [Ad]2 | [Ge]6 |] %23
w: |||
w: |||
w: |||
V:2
 E4 G2 A2 | B3 x5 | B4 c2 d2 | e3 x5 | x8 | x8 | B4 x4 | x8 | x8 | x4 d4 | e4 x4 | x4 E4 | x8 | %13
w: morn- ing land,|gold-|spreads her wings;|trou-|||weep,|||brings.||||
w: wel- come voice|hope|ev- ery fear;|hear|||way,|||tear.|jah!|in||
w: noint- ed One,|ter-|ry to Thee;|alt-|||Word,|||be.||||
 x6 ||[M:3/4] x2 | x6 | G2 x4 | x6 | E2 x4 | x6 | G2 x4 | x6 | x6 |] %23
w: ||||||||||
w: |||God||men.|||||
w: ||||||||||
V:3
 E,4 G,2 A,2 | B,3 [B,,G,] [B,,F,]4 | B,4 C2 D2 | E3 C [E,B,]4 | [F,=A,]4 [F,B,]2 [F,E]2 | %5
 [B,,D]6 z2 | (B,,3 C,) [D,B,]2 [F,B,]2 | [E,B,]3 [A,B,] [G,B,]4 | B,4 B,2 B,2 | %9
 [E,E]3 [G,E] ([B,D]2 [=B,F]2) | (C2 G,2) [A,E]2 [A,E]2 | [E,E]3 [E,B,] [C,=A,]4 | %12
 [B,,B,]2 [B,,F,]4 [B,,B,]2 | [E,G,]6 ||[M:3/4] [E,B,]>[G,B,] | B,B, B,[A,B,] [G,B,][F,B,] | %16
 (B,E) [E,E]2 [E,B,]>[E,B,] | [B,,B,][B,,B,] [B,,B,][B,,B,] [C,B,][D,B,] | %18
 (B,G,) [E,G,] z [E,B,]>[G,B,] | B,B, B,[A,B,] [G,B,][F,B,] | (B,E) [E,E]2 [E,E]>[E,E] | %21
 .[A,E].[A,E] z2 B,2 | [E,B,]6 |] %23
V:4
 E,4 G,2 A,2 | B,3 x5 | B,4 C2 D2 | E3 C x4 | x8 | x8 | B,4 x4 | x8 | B,4 B,2 B,2 | x8 | E4 x4 | %11
 x8 | x8 | x6 ||[M:3/4] x2 | B,B, B, x3 | E,2 x4 | x6 | E,2 x4 | B,B, B, x3 | E,2 x4 | x4 B,2 | %22
 x6 |] %23

